X: 1
T: Willy Taylor's High Tea
C: Michelle Soinne
S: lewesarmsfolkclub.org/WillyTaylorsHighTea.abc
S: http://lesters-tune-a-day.blogspot.co.uk/2014/05/tune-383-willy-taylors-high-tea.html
M: 4/4
L: 1/8
K: G
GA |\
B2Bc BAGA | B2d2 e4 | d2g2 B2d2 | cBAG A2GA |\
B2Bc BAGA | B2d2 e4 | d2g2 B2G2 | A4 G2 :|
gf |\
e2dc BAGA | B2d2 e4 | d2g2 B2d2 | cBAG A2gf |\
e2dc BAGA | B2d2 e4 | d2g2 B2G2 | A4 G2 ||
gf |\
e2dc BAGA | B2d2 e4 | d2g2 B2d2 | cBAG A2GA |\
B2Bc BAGA | B2d2 e4 | d2g2 B2G2 | A4 G2 |]
